dashboard/assets/pic-35-57b10f7af50c0760.svg

<svg xmlns="http://www.w3.org/2000/svg" viewBox="0 0 382.97 68.88"><defs><style>.cls-3{fill:#1d71b8}.cls-2{fill:#36a9e1}.cls-3{opacity:0}.cls-4{fill:#f39200}</style></defs><g id="图层_2" data-name="图层 2"><g id="Layer_1" data-name="Layer 1"><path opacity=".5" fill="#1d71b8" d="M270.34 6.07V1h-37.82v10.32h-9.76v38.29H165.7V11.32H90.67V1H60.43L27.34 9.32H1v11.96h51.01l12.96 6.37h87.88v5.7H76.56l8.32 4.09h67.97v5.7H96.47l8.32 4.09h48.06v5.7h-36.47l8.32 4.09h28.15v5.7H136.3l10.49 5.16h18.91v-7.74h150.06v7.74h66.21V6.07H270.34z"/><path class="cls-2" d="M383 68.88h-68.24v-7.74H166.7v7.74h-20.14L132 61.72h19.85V58h-27.38l-12.39-6.09h39.77v-3.7h-47.29l-12.39-6.07h59.68v-3.7h-67.2l-12.39-6.09h79.59v-3.7H64.74l-13-6.37H0v-14h27.22L60.31 0h31.36v10.32h75v38.29h55.06V10.32h9.76V0h39.82v5.07H383zm-66.21-2H381V7.07H269.34V2h-35.82v10.32h-9.76v38.29H164.7V12.32h-75V2H60.55l-33.09 8.32H2v10h50.24l13 6.37h88.65v7.7h-73l4.25 2.09h68.74v7.7h-53.11l4.23 2.05h48.83v7.7h-33.15l4.25 2.07h28.92v7.7H140.6l6.4 3.18h17.7v-7.74h152.06z"/><path class="cls-3" d="M256.07 49.68a15.24 15.24 0 1115.24-15.24 15.23 15.23 0 01-15.24 15.24z"/><path class="cls-2" d="M256.07 50.68a16.24 16.24 0 1116.24-16.24 16.26 16.26 0 01-16.24 16.24zm0-30.48a14.24 14.24 0 1014.24 14.24 14.25 14.25 0 00-14.24-14.24z"/><path class="cls-3" d="M305.88 49.68a15.24 15.24 0 1115.23-15.24 15.24 15.24 0 01-15.23 15.24z"/><path class="cls-2" d="M305.88 50.68a16.24 16.24 0 1116.23-16.24 16.26 16.26 0 01-16.23 16.24zm0-30.48a14.24 14.24 0 1014.23 14.24 14.26 14.26 0 00-14.23-14.24z"/><path class="cls-3" d="M355.68 49.68a15.24 15.24 0 1115.23-15.24 15.24 15.24 0 01-15.23 15.24z"/><path class="cls-2" d="M355.68 50.68a16.24 16.24 0 1116.23-16.24 16.26 16.26 0 01-16.23 16.24zm0-30.48a14.24 14.24 0 1014.23 14.24 14.26 14.26 0 00-14.23-14.24z"/><path class="cls-4" d="M349.66 34.44a6 6 0 116 6 6 6 0 01-6-6zM299.86 34.44a6 6 0 116 6 6 6 0 01-6-6zM250.06 34.44a6 6 0 116 6 6 6 0 01-6-6z"/></g></g></svg>

<svg xmlns="http://www.w3.org/2000/svg" viewBox="0 0 382.97 68.88"><defs><style>.cls-1,.cls-3{fill:#1d71b8;}.cls-1{opacity:0.5;}.cls-2{fill:#36a9e1;}.cls-3{opacity:0;}.cls-4{fill:#f39200;}</style></defs><title>资源 4</title><g id="图层_2" data-name="图层 2"><g id="Layer_1" data-name="Layer 1"><polygon class="cls-1" points="270.34 6.07 270.34 1 232.52 1 232.52 11.32 222.76 11.32 222.76 49.61 165.7 49.61 165.7 11.32 90.67 11.32 90.67 1 60.43 1 27.34 9.32 1 9.32 1 21.28 52.01 21.28 64.97 27.65 152.85 27.65 152.85 33.35 76.56 33.35 84.88 37.44 152.85 37.44 152.85 43.14 96.47 43.14 104.79 47.23 152.85 47.23 152.85 52.93 116.38 52.93 124.7 57.02 152.85 57.02 152.85 62.72 136.3 62.72 146.79 67.88 165.7 67.88 165.7 60.14 315.76 60.14 315.76 67.88 381.97 67.88 381.97 6.07 270.34 6.07"/><path class="cls-2" d="M383,68.88H314.76V61.14H166.7v7.74H146.56L132,61.72h19.85V58H124.47l-12.39-6.09h39.77v-3.7H104.56L92.17,42.14h59.68v-3.7H84.65L72.26,32.35h79.59v-3.7H64.74l-13-6.37H0v-14H27.22L60.31,0H91.67V10.32h75V48.61h55.06V10.32h9.76V0h39.82V5.07H383Zm-66.21-2H381V7.07H269.34V2H233.52V12.32h-9.76V50.61H164.7V12.32h-75V2H60.55L27.46,10.32H2v10H52.24l13,6.37h88.65v7.7h-73l4.25,2.09h68.74v7.7H100.77L105,46.23h48.83v7.7H120.68L124.93,56h28.92v7.7H140.6L147,66.88H164.7V59.14H316.76Z"/><path class="cls-3" d="M256.07,49.68a15.24,15.24,0,1,1,15.24-15.24A15.23,15.23,0,0,1,256.07,49.68Z"/><path class="cls-2" d="M256.07,50.68a16.24,16.24,0,1,1,16.24-16.24A16.26,16.26,0,0,1,256.07,50.68Zm0-30.48a14.24,14.24,0,1,0,14.24,14.24A14.25,14.25,0,0,0,256.07,20.2Z"/><path class="cls-3" d="M305.88,49.68a15.24,15.24,0,1,1,15.23-15.24A15.24,15.24,0,0,1,305.88,49.68Z"/><path class="cls-2" d="M305.88,50.68a16.24,16.24,0,1,1,16.23-16.24A16.26,16.26,0,0,1,305.88,50.68Zm0-30.48a14.24,14.24,0,1,0,14.23,14.24A14.26,14.26,0,0,0,305.88,20.2Z"/><path class="cls-3" d="M355.68,49.68a15.24,15.24,0,1,1,15.23-15.24A15.24,15.24,0,0,1,355.68,49.68Z"/><path class="cls-2" d="M355.68,50.68a16.24,16.24,0,1,1,16.23-16.24A16.26,16.26,0,0,1,355.68,50.68Zm0-30.48a14.24,14.24,0,1,0,14.23,14.24A14.26,14.26,0,0,0,355.68,20.2Z"/><path class="cls-4" d="M349.66,34.44a6,6,0,1,1,6,6A6,6,0,0,1,349.66,34.44Z"/><path class="cls-4" d="M299.86,34.44a6,6,0,1,1,6,6A6,6,0,0,1,299.86,34.44Z"/><path class="cls-4" d="M250.06,34.44a6,6,0,1,1,6,6A6,6,0,0,1,250.06,34.44Z"/></g></g></svg>
